icons/vomitting_fill.svg

<svg width="48" height="48" viewBox="0 0 48 48" fill="none" xmlns="http://www.w3.org/2000/svg">
<path d="M18.976 32.1014C18.976 32.1014 18.9771 32.0987 18.9813 32.0933C18.9784 32.0987 18.976 32.1014 18.976 32.1014Z" fill="black"/>
<path d="M29.024 32.1014C29.024 32.1014 29.0216 32.0987 29.0187 32.0933C29.0229 32.0986 29.024 32.1014 29.024 32.1014Z" fill="black"/>
<path fill-rule="evenodd" clip-rule="evenodd" d="M36.0927 37.3331C39.7214 34.04 42 29.2861 42 24C42 14.0589 33.9411 6 24 6C14.0589 6 6 14.0589 6 24C6 29.2861 8.27865 34.04 11.9073 37.3331C11.8574 37.3734 11.8091 37.4145 11.7625 37.4566C11.3667 37.8144 11 38.3318 11 39C11 39.986 11.7752 40.6391 12.4342 41.0286C13.1601 41.4577 14.144 41.8094 15.2722 42.0915C17.5439 42.6594 20.6292 43 24 43C27.3708 43 30.4561 42.6594 32.7278 42.0915C33.856 41.8094 34.8399 41.4577 35.5658 41.0286C36.2248 40.6391 37 39.986 37 39C37 38.3318 36.6333 37.8144 36.2374 37.4566C36.1909 37.4145 36.1426 37.3734 36.0927 37.3331ZM40 24C40 28.9685 37.7353 33.4081 34.1819 36.3427C33.2923 36.0243 32.2108 35.7574 31 35.5475V35.1648C31.6372 34.3753 32 33.4668 32 32.5C32 29.4624 28.4183 27 24 27C19.5817 27 16 29.4624 16 32.5C16 33.4668 16.3628 34.3753 17 35.1648V35.5475C15.7892 35.7574 14.7077 36.0243 13.8181 36.3427C10.2647 33.4081 8 28.9685 8 24C8 15.1634 15.1634 8 24 8C32.8366 8 40 15.1634 40 24ZM24.0085 31.125H23.9915C23.6572 31.1251 23.3253 31.1334 23 31.1495V37C23 37.5523 22.5523 38 22 38C21.4477 38 21 37.5523 21 37V31.3657C20.6918 31.4207 20.404 31.4847 20.1426 31.5573C19.6317 31.6992 19.2895 31.8558 19.0969 31.9934C19.0484 32.028 19.0181 32.0546 19 32.0727V37.2671L18.1431 37.391C16.3914 37.6444 14.9858 38.0006 14.0454 38.3994C13.5715 38.6004 13.2704 38.7896 13.1037 38.9403C13.0782 38.9633 13.0581 38.9833 13.0423 39.0002C13.0988 39.0626 13.2159 39.1674 13.4518 39.3069C13.9404 39.5956 14.7138 39.8903 15.7573 40.1512C17.8287 40.669 20.7434 41 24 41C27.2566 41 30.1713 40.669 32.2427 40.1512C33.2862 39.8903 34.0596 39.5956 34.5481 39.3069C34.7841 39.1674 34.9012 39.0626 34.9577 39.0002C34.9419 38.9833 34.9218 38.9633 34.8963 38.9403C34.7296 38.7896 34.4285 38.6004 33.9546 38.3994C33.0142 38.0006 31.6086 37.6444 29.8569 37.391L29 37.2671V32.0727C28.9819 32.0546 28.9516 32.028 28.9031 31.9934C28.7105 31.8558 28.3683 31.6992 27.8574 31.5573C27.596 31.4847 27.3082 31.4207 27 31.3657V37C27 37.5523 26.5523 38 26 38C25.4477 38 25 37.5523 25 37V31.1495C24.6747 31.1334 24.3428 31.1251 24.0085 31.125ZM18.976 32.1014C18.976 32.1014 18.9771 32.0987 18.9813 32.0933C18.9784 32.0987 18.976 32.1014 18.976 32.1014ZM29.024 32.1014C29.024 32.1014 29.0216 32.0987 29.0187 32.0933C29.0229 32.0986 29.024 32.1014 29.024 32.1014Z" fill="black"/>
<path d="M15.2411 20.3488C15.5703 19.9651 16.1341 19.8875 16.5547 20.1679L19.5547 22.1679C19.8329 22.3534 20 22.6656 20 23C20 23.3344 19.8329 23.6466 19.5547 23.8321L16.5547 25.8321C16.128 26.1165 15.5554 26.0321 15.2289 25.6367C14.9024 25.2413 14.9279 24.663 15.288 24.2978C16.0121 23.5635 16.113 23.2182 16.1117 23.0378C16.1102 22.836 15.983 22.4636 15.2619 21.6747C14.9208 21.3015 14.9119 20.7325 15.2411 20.3488Z" fill="black"/>
<path d="M31.4453 20.1679C31.8659 19.8875 32.4297 19.9651 32.7589 20.3488C33.0881 20.7325 33.0792 21.3015 32.7381 21.6747C32.017 22.4636 31.8898 22.836 31.8883 23.0378C31.887 23.2182 31.9879 23.5635 32.712 24.2978C33.0721 24.663 33.0976 25.2413 32.7711 25.6367C32.4446 26.0321 31.872 26.1165 31.4453 25.8321L28.4453 23.8321C28.1671 23.6466 28 23.3344 28 23C28 22.6656 28.1671 22.3534 28.4453 22.1679L31.4453 20.1679Z" fill="black"/>
</svg>

<svg
  xmlns="http://www.w3.org/2000/svg"
  width="24"
  height="24"
  viewBox="0 0 24 24"
  fill="none"
  stroke="currentColor"
  stroke-width="2"
  stroke-linecap="round"
  stroke-linejoin="round"
>
  <path d="m18.976 32.101.005-.008z" />
  <path d="m29.024 32.101-.005-.008z" />
  <path
    fill-rule="evenodd"
    d="M36.093 37.333A17.95 17.95 0 0 0 42 24c0-9.941-8.059-18-18-18S6 14.059 6 24c0 5.286 2.279 10.04 5.907 13.333a3 3 0 0 0-.145.124c-.395.357-.762.875-.762 1.543 0 .986.775 1.64 1.434 2.029.726.429 1.71.78 2.838 1.063C17.544 42.659 20.63 43 24 43s6.456-.34 8.728-.908c1.128-.283 2.112-.634 2.838-1.063C36.225 40.639 37 39.986 37 39c0-.668-.367-1.186-.763-1.543a3 3 0 0 0-.144-.124M40 24c0 4.968-2.265 9.408-5.818 12.343-.89-.319-1.971-.586-3.182-.796v-.382c.637-.79 1-1.698 1-2.665 0-3.038-3.582-5.5-8-5.5s-8 2.462-8 5.5c0 .967.363 1.875 1 2.665v.383c-1.21.21-2.292.476-3.182.795A15.97 15.97 0 0 1 8 24c0-8.837 7.163-16 16-16s16 7.163 16 16m-15.991 7.125h-.018q-.502 0-.991.024V37a1 1 0 1 1-2 0v-5.634a9 9 0 0 0-.857.191c-.511.142-.854.299-1.046.436a1 1 0 0 0-.097.08v5.194l-.857.124c-1.752.253-3.157.61-4.098 1.008-.473.201-.775.39-.941.541l-.062.06c.057.063.174.167.41.307.488.289 1.262.583 2.305.844C17.83 40.67 20.743 41 24 41s6.171-.331 8.243-.849c1.043-.26 1.817-.555 2.305-.844.236-.14.353-.244.41-.307l-.062-.06c-.166-.15-.468-.34-.941-.54-.94-.4-2.346-.756-4.098-1.009L29 37.267v-5.194a1 1 0 0 0-.097-.08c-.192-.137-.535-.294-1.046-.436a9 9 0 0 0-.857-.191V37a1 1 0 1 1-2 0v-5.85a20 20 0 0 0-.991-.025m-5.033.976.005-.008zm10.048 0-.005-.008z"
    clip-rule="evenodd"
  />
  <path d="M15.241 20.349a1 1 0 0 1 1.314-.181l3 2a1 1 0 0 1 0 1.664l-3 2a1 1 0 0 1-1.267-1.534c.724-.734.825-1.08.824-1.26-.002-.202-.129-.574-.85-1.363a1 1 0 0 1-.02-1.326" />
  <path d="M31.445 20.168a1 1 0 0 1 1.293 1.507c-.721.789-.848 1.161-.85 1.363-.001.18.1.526.824 1.26a1 1 0 0 1-1.267 1.534l-3-2a1 1 0 0 1 0-1.664z" />
</svg>
